X: 603
T: Golden Eagle Hornpipe, The
B: jims roots
M:4/4
L:1/8
Q: 1/4=100
K:G
V:1 
%TablEdited by Vance Henry
%428
BA |: "G"GB,DG BDGB | dGBd gbag | "D"fed^c =cAFD | "G"GBAG "D"FDBA |
"G"GB,DG BDGB | dGBd gbag | "D"fd^c=c ADFA|[1 "G"G2 B2 G2 BA:| [2 "G"G2 B2 G3b ||
|: "B7"bB^df bagf | "Em"e^def gfg^g | "A7"aA^ce agfe | "D"edd^c d2 "(1)"ab |
"C"c'afd ^cdef | "G"gfga bgag | "Am"fAce "D"dFBA | [1 "G"G2 B2 G3b :|[2 "G"G2 B2 G4||
% abcbook-tune_id 6298c25df5853f38cb69b63b


% abcbook-boost 0
% abcbook-tablature 
% abcbook-transpose 
% abcbook-lastupdated 1654178398286
% abcbook-soundfonts 
% abcbook-repeats 1


